!!!OTL: DA BIN ICH GERN WO FROHE SAENGER WEILEN
!!!ARE: Europa, Mitteleuropa, Deutschland
!!!SCT: F0811
!!!YEM: Copyright 1995, estate of Helmut Schaffrath.
**kern
*ICvox
*Ivox
*M4/4
*k[f#c#]
*D:
{4A
=1
8.d
16e
8f#
8e
8d
8c#
8d
8B
=2
4.A
8G
8F#}
{8F#
8E
8F#
=3
4G
4A
4B
4c#
=4
4.d
8e
4f#}
{4A
=5
8.d
16e
8f#
8e
8d
8c#
8d
8B
=6
4.A
8G
8F#}
{8F#
8E
8F#
=7
4G
4e
4d
4c#
=8
4d
2r}
{4d
=9
8.c#
16d
4.e
8A
8A
8A
=10
8.d
16e
8f#
8e
4d}
{4d
=11
8.c#
16d
4.e
8A
8A
8A
=12
8.d
16e
8f#
8e
4d}
{4A
=13
8.d
16e
8f#
8e
8d
8c#
8d
8B
=14
4.A
8G
8F#}
{8F#
8E
8F#
=15
4G
4e
4d
4c#
=16
4d
2r}
==
!!!AGN: Geselligkeits - Lied
!!!ONB: ESAC (Essen Associative Code) Database: FINK
!!!AMT: simple quadruple
!!!AIN: vox
!!!EED: Helmut Schaffrath
!!!EEV: 1.0
*-
